examples/assets/uglypanda.svg

<svg data-name="Capa 1" viewBox="0 0 719.34 604.97" xmlns="http://www.w3.org/2000/svg">
<defs>
<style>.cls-1{fill:#86b5c3;}.cls-1,.cls-3,.cls-6,.cls-7{stroke:#772c4f;stroke-linecap:round;stroke-linejoin:round;}.cls-1,.cls-3,.cls-6{stroke-width:22.22px;}.cls-2{fill:#ffd1b8;}.cls-3{fill:#b4ccd3;}.cls-4{fill:#772c4f;}.cls-5{fill:#babec6;}.cls-6,.cls-7{fill:none;}.cls-7{stroke-width:14.81px;}</style>
</defs>
<title>uglypanda</title>
<path class="cls-1" d="m679.12 187.05c-20.35 19.37-48.4 29.53-75.87 33.13-20.34 2.66-64.32 6.76-75.15-16-17.1-35.87-26.55-77.12-16.94-115.74 19.05-76.61 108.41-103.76 165-47.17 34.54 34.54 43.06 87.85 16.31 129.73a86.85 86.85 0 0 1 -13.35 16.05z"/>
<path class="cls-2" d="M638.81,80.1c47.64,47.65-33,98.85-69.06,121-7.82,4.8-16.68,9.79-25.64,7.82-2.13-.47-4.3-1.43-5.44-3.28a10.24,10.24,0,0,1-1.09-5.4c-.44-34.64,3.78-79.41,27.43-106.35C583.48,72.85,615.34,56.64,638.81,80.1Z"/>
<path class="cls-1" d="M40.23,187.05c20.34,19.37,48.39,29.53,75.86,33.13,20.34,2.66,64.33,6.76,75.15-16,17.13-35.92,26.55-77.17,16.95-115.79C189.13,11.83,99.77-15.32,43.19,41.27,8.64,75.81.12,129.12,26.87,171A87.3,87.3,0,0,0,40.23,187.05Z"/>
<path class="cls-2" d="M80.53,80.1c-47.64,47.65,33,98.85,69.06,121,7.82,4.8,16.68,9.79,25.64,7.82,2.13-.47,4.3-1.43,5.45-3.28a10.44,10.44,0,0,0,1.09-5.4c.43-34.64-3.79-79.41-27.44-106.35C135.86,72.85,104,56.64,80.53,80.1Z"/>
<path class="cls-3" d="M643.27,375.48c0,160.3-130,218.38-290.26,218.38-47.72,0-92.77-5.15-132.49-16.61C172.21,563.31,131.78,540,104,505.31c-26.16-32.6-41.2-75.3-41.2-129.83C62.75,240.67,168.42,97.66,353,97.66S643.27,240.67,643.27,375.48Z"/>
<circle class="cls-4" cx="191.78" cy="389.45" r="44.44"/>
<circle class="cls-4" cx="508.76" cy="389.45" r="44.44"/>
<path class="cls-5" d="m249.58 538.29a93.27 93.27 0 0 1 -8.46 39c-64.23-18.53-118-49.49-155-95.63a90.67 90.67 0 0 1 72.16 -35.88c50.43-0.04 91.3 41.4 91.3 92.51z"/>
<path class="cls-5" d="m456.44 538.29a93.27 93.27 0 0 0 8.46 39c64.23-18.53 118-49.49 155-95.63a90.67 90.67 0 0 0 -72.16 -35.88c-50.43-0.04-91.3 41.4-91.3 92.51z"/>
<path class="cls-2" d="m451.74 418.51c0 77.61-44.86 105.73-100.21 105.73-16.48 0-32-2.49-45.74-8-16.68-6.75-30.64-18-40.25-34.83-9-15.79-14.23-36.46-14.23-62.86 0-65.31 36.49-134.55 100.22-134.55s100.21 69.24 100.21 134.51z"/>
<path class="cls-4" d="m408.77 400.18c0 50.73-25.63 69.1-57.24 69.1-9.41 0-18.3-1.62-26.13-5.25-9.53-4.41-17.5-11.78-23-22.77-5.16-10.31-8.12-23.83-8.12-41.08 0-42.66 20.84-87.92 57.24-87.92s57.25 45.26 57.25 87.92z"/>
<path class="cls-6" d="M643.27,375.48c0,160.3-130,218.38-290.26,218.38-47.72,0-92.77-5.15-132.49-16.61C172.21,563.31,131.78,540,104,505.31c-26.16-32.6-41.2-75.3-41.2-129.83C62.75,240.67,168.42,97.66,353,97.66S643.27,240.67,643.27,375.48Z"/>
<path class="cls-7" d="M362.9,499a53.29,53.29,0,0,0,36.33-20.15"/>
<path class="cls-3" d="M264.81,110.7a140.66,140.66,0,0,0,88.94-61.09A66.57,66.57,0,0,1,386.2,93.73,44.29,44.29,0,0,0,400.56,69c18.67,9.27,50.58,37.41,60.7,55.64"/>
</svg>

<svg id="Capa_1" data-name="Capa 1" xmlns="http://www.w3.org/2000/svg" viewBox="0 0 719.34 604.97"><defs><style>.cls-1{fill:#86b5c3;}.cls-1,.cls-3,.cls-6,.cls-7{stroke:#772c4f;stroke-linecap:round;stroke-linejoin:round;}.cls-1,.cls-3,.cls-6{stroke-width:22.22px;}.cls-2{fill:#ffd1b8;}.cls-3{fill:#b4ccd3;}.cls-4{fill:#772c4f;}.cls-5{fill:#babec6;}.cls-6,.cls-7{fill:none;}.cls-7{stroke-width:14.81px;}</style></defs><title>uglypanda</title><path class="cls-1" d="M679.12,187.05c-20.35,19.37-48.4,29.53-75.87,33.13-20.34,2.66-64.32,6.76-75.15-16C511,168.31,501.55,127.06,511.16,88.44c19.05-76.61,108.41-103.76,165-47.17C710.7,75.81,719.22,129.12,692.47,171A86.85,86.85,0,0,1,679.12,187.05Z"/><path class="cls-2" d="M638.81,80.1c47.64,47.65-33,98.85-69.06,121-7.82,4.8-16.68,9.79-25.64,7.82-2.13-.47-4.3-1.43-5.44-3.28a10.24,10.24,0,0,1-1.09-5.4c-.44-34.64,3.78-79.41,27.43-106.35C583.48,72.85,615.34,56.64,638.81,80.1Z"/><path class="cls-1" d="M40.23,187.05c20.34,19.37,48.39,29.53,75.86,33.13,20.34,2.66,64.33,6.76,75.15-16,17.13-35.92,26.55-77.17,16.95-115.79C189.13,11.83,99.77-15.32,43.19,41.27,8.64,75.81.12,129.12,26.87,171A87.3,87.3,0,0,0,40.23,187.05Z"/><path class="cls-2" d="M80.53,80.1c-47.64,47.65,33,98.85,69.06,121,7.82,4.8,16.68,9.79,25.64,7.82,2.13-.47,4.3-1.43,5.45-3.28a10.44,10.44,0,0,0,1.09-5.4c.43-34.64-3.79-79.41-27.44-106.35C135.86,72.85,104,56.64,80.53,80.1Z"/><path class="cls-3" d="M643.27,375.48c0,160.3-130,218.38-290.26,218.38-47.72,0-92.77-5.15-132.49-16.61C172.21,563.31,131.78,540,104,505.31c-26.16-32.6-41.2-75.3-41.2-129.83C62.75,240.67,168.42,97.66,353,97.66S643.27,240.67,643.27,375.48Z"/><circle class="cls-4" cx="191.78" cy="389.45" r="44.44"/><circle class="cls-4" cx="508.76" cy="389.45" r="44.44"/><path class="cls-5" d="M249.58,538.29a93.27,93.27,0,0,1-8.46,39c-64.23-18.53-118-49.49-155-95.63a90.67,90.67,0,0,1,72.16-35.88C208.71,445.74,249.58,487.18,249.58,538.29Z"/><path class="cls-5" d="M456.44,538.29a93.27,93.27,0,0,0,8.46,39c64.23-18.53,118-49.49,155-95.63a90.67,90.67,0,0,0-72.16-35.88C497.31,445.74,456.44,487.18,456.44,538.29Z"/><path class="cls-2" d="M451.74,418.51c0,77.61-44.86,105.73-100.21,105.73-16.48,0-32-2.49-45.74-8-16.68-6.75-30.64-18-40.25-34.83-9-15.79-14.23-36.46-14.23-62.86C251.31,353.24,287.8,284,351.53,284S451.74,353.24,451.74,418.51Z"/><path class="cls-4" d="M408.77,400.18c0,50.73-25.63,69.1-57.24,69.1-9.41,0-18.3-1.62-26.13-5.25-9.53-4.41-17.5-11.78-23-22.77-5.16-10.31-8.12-23.83-8.12-41.08,0-42.66,20.84-87.92,57.24-87.92S408.77,357.52,408.77,400.18Z"/><path class="cls-6" d="M643.27,375.48c0,160.3-130,218.38-290.26,218.38-47.72,0-92.77-5.15-132.49-16.61C172.21,563.31,131.78,540,104,505.31c-26.16-32.6-41.2-75.3-41.2-129.83C62.75,240.67,168.42,97.66,353,97.66S643.27,240.67,643.27,375.48Z"/><path class="cls-7" d="M362.9,499a53.29,53.29,0,0,0,36.33-20.15"/><path class="cls-3" d="M264.81,110.7a140.66,140.66,0,0,0,88.94-61.09A66.57,66.57,0,0,1,386.2,93.73,44.29,44.29,0,0,0,400.56,69c18.67,9.27,50.58,37.41,60.7,55.64"/></svg>
